;FLAVOR:Marlin
;TIME:8741.15
;Filament used:8.72096m
;Layer height: 0.15
;MINX:60.267
;MINY:75.767
;MINZ:0.24
;MAXX:159.707
;MAXY:144.232
;MAXZ:21.89
                                  
;Creality Print GCode Generated by CXEngine
;CRSLICE_GIT_HASH:3ff0ab3
;Creality Print Version : V4.3.5.5791
;CXEngine Release Time:2023-06-13 21:35:22
;Gcode Generated Time:2023-07-22 10:46:52
;----------Machine Config--------------
;Machine Name:Creality Ender-3
;Machine Height:250
;Machine Width:220
;Machine Depth:220
;Material name:Ender-PLA_1.75
;Number of Extruders:1
;ExtruderParams[0] Nozzle Diameter:1000
;----------Profile Config---------------
;Layer Height:0.15
;Wall Thickness:1.2
;Top/Bottom Thickness:0.84
;Out Wall Line Width:0.4
;Inner Wall Line Width:0.4
;Inital Layer Height:150
;Wall Line Count:3
;Infill Line Distance:8
;Infill Pattern:grid
;Infill Sparse Density:10
;Infill Wipe Distance:0
;Print Temperature:200
;Bed Temperature:60
;Support Enable:false
;Support Density:20
;Support Angle:51
;Adhesion Type:simpleraft
;machine is belt:false
;machine belt offset:10
;machine belt offset Y:0
;Raft Base Line Spacing:1.6
;Wait Heatup Sync:true
;Enable Ironing:false
;Material Type:PLA
;Max volumetric speed:10
;----------Shell Config----------------
;Outer Wall Wipe Distance:200
;Outer Inset First:false
;Infill Before Walls:false
;Infill Overlap:0.16
;Fill Gaps Between Walls:everywhere
;Minimum Infill Area:15
;Top Surface Skin Layer:0
;Top Layers:6
;Z Seam Alignment:sharpest_corner
;Seam Corner Preference:z_seam_corner_weighted
;Z Seam X:110
;Z Seam Y:220
;Horizontal Expansion:0
;Top/Bottom Pattern:zigzag
;Ironing Pattern:zigzag
;Vase Model:false
;----------Support Config----------------
;Support Type:everywhere
;Support Pattern:zigzag
;Support Infill Layer Thickness:0.15
;Minimum Support Area:5
;Enable Support Roof:true
;Support Roof Thickness:0.8
;Support Roof Pattern:lines
;Connect Support Lines:0
;Connect Support ZigZags:1
;Minimum Support X/Y Distance:0.2
;Support Line Distance:2
; ---------PrintSpeed & Travel----------
;Enable Print Cool:true
;Avoid Printed Parts Traveling:true
;Enable Retraction:true
;Retraction Distance:5
;Retraction Speed:25
;Retraction Prime Speed:25
;Maximum Retraction Count:100
;Minimum Extrusion Distance Window:2
;Z Hop When Retracted:false
;Z Hop Height:0.2
;Retract Before Outer Wall:true

;Outer Wall Speed:50
;Inner Wall Speed:50
;Infill Speed:50
;Top/Bottom Speed:50
;Travel Speed:120
;Initial Layer Speed:25
;Skirt/Brim Speed:25
;Prime Tower Speed:60
;Outer Wall Acceleration:500
;Inner Wall Acceleration:500
;Infill Acceleration:500
;Top/Bottom Acceleration:500
;Travel Acceleration:500
;Initial Layer Print Acceleration:500
;Initial Layer Travel Acceleration:500
;Skirt/Brim Acceleration:500
;Combing Mode:off
; --------SpecialModel&Mesh Fixes--------
;Union Overlapping Volum:true
;Remove All Holes:false
;Maximum Travel Resolution:0.25
;Maximum Deviation:0.05
;Maximum Model Angle:0.872665
;IS Mold Print:false
;Make Overhang Printable:false
;Enable Coasting:false
;Coasting Volumes:0.064
;Coasting Speed:0.9
;Raft AirGap:0.25
;Layer0 ZOverLap:0.13
;---------------------End of Head--------------------------
M140 S60
M105
M190 S60
M104 S200
M105
M109 S200
M82 ;absolute extrusion mode
M220 S100 ;Reset Feedrate
M221 S100 ;Reset Flowrate

G28 ;Home

G92 E0 ;Reset Extruder
G1 Z2.0 F3000 ;Move Z Axis up
G1 X10.1 Y20 Z0.28 F5000.0 ;Move to start position
G1 X10.1 Y145.0 Z0.28 F1500.0 E15 ;Draw the first line
G1 X10.4 Y145.0 Z0.28 F5000.0 ;Move to side a little
G1 X10.4 Y20 Z0.28 F1500.0 E30 ;Draw the second line
G92 E0  ;Reset Extruder
G1 E-1.0000 F1800 ;Retract a bit
G1 Z2.0 F3000 ;Move Z Axis up
G1 E0.0000 F1800 

G92 E0
G92 E0
G1 F1500 E-5
;LAYER_COUNT:140

;LAYER:-4
M106 S0
M106 P2 S0
M204 S500
G0 F7200 X64.435 Y78.813 Z0.24
M204 S3000
;TYPE:SUPPORT-INTERFACE
G1 F1500 E0
G1 F1200 X64.203 Y79.073 E0.02782
G1 X63.664 Y79.626 E0.08946
G1 X63.207 Y80.03 E0.13815
G1 X62.616 Y80.652 E0.20664
G1 X62.087 Y81.319 E0.27459
G1 X61.623 Y82.023 E0.3419
G1 X61.214 Y82.785 E0.41093
G1 X60.865 Y83.602 E0.48185
G1 X60.61 Y84.4 E0.54872
G1 X60.441 Y85.142 E0.60947
G1 X60.306 Y86.07 E0.68433
G1 X60.267 Y87.005 E0.75903
G1 X60.293 Y132.942 E4.42592
G1 X60.284 Y133.236 E4.4494
G1 X60.283 Y134 E4.51038
G1 X60.356 Y134.841 E4.57777
G1 X60.501 Y135.656 E4.64384
G1 X60.588 Y136.053 E4.67629
G1 X60.788 Y136.797 E4.73778
G1 X61.024 Y137.459 E4.79389
G1 X61.129 Y137.718 E4.81619
G1 X61.434 Y138.379 E4.8743
G1 X61.854 Y139.112 E4.94174
G1 X62.363 Y139.838 E5.01252
G1 X62.914 Y140.489 E5.0806
G1 X63.514 Y141.083 E5.14799
G1 X64.162 Y141.62 E5.21517
G1 X64.888 Y142.119 E5.28549
G1 X65.642 Y142.542 E5.35451
G1 X66.417 Y142.891 E5.42235
G1 X67.108 Y143.132 E5.48077
G1 X67.503 Y143.284 E5.51455
G1 X68.261 Y143.613 E5.58052
G1 X69.108 Y143.888 E5.6516
G1 X69.927 Y144.075 E5.71866
G1 X70.797 Y144.194 E5.78875
G1 X71.724 Y144.232 E5.86281
G1 X148.62 Y144.209 E12.00098
G1 X149.139 Y144.221 E12.04242
G1 X149.886 Y144.192 E12.1021
G1 X150.734 Y144.082 E12.17036
G1 X151.515 Y143.913 E12.23414
G1 X151.86 Y143.821 E12.26264
G1 X152.713 Y143.547 E12.33416
G1 X153.493 Y143.215 E12.40183
G1 X154.242 Y142.815 E12.46961
G1 X155.008 Y142.311 E12.5428
G1 X155.618 Y141.863 E12.60322
G1 X156.456 Y141.178 E12.68961
G1 X157.047 Y140.582 E12.75661
G1 X157.593 Y139.926 E12.82474
G1 X158.089 Y139.204 E12.89467
G1 X158.508 Y138.464 E12.96255
G1 X158.853 Y137.7 E13.02946
G1 X159.126 Y136.919 E13.0955
G1 X159.317 Y136.277 E13.14897
G1 X159.548 Y135.314 E13.22802
G1 X159.668 Y134.437 E13.29868
G1 X159.707 Y133.506 E13.37306
G1 X159.707 Y86.502 E17.12513
G1 X159.652 Y85.454 E17.2089
G1 X159.624 Y85.204 E17.22898
G1 X159.506 Y84.475 E17.28793
G1 X159.311 Y83.698 E17.35187
G1 X159.153 Y83.169 E17.39594
G1 X158.805 Y82.21 E17.47738
G1 X158.697 Y81.947 E17.50008
G1 X158.377 Y81.291 E17.55834
G1 X157.936 Y80.559 E17.62655
G1 X157.426 Y79.864 E17.69537
G1 X156.86 Y79.22 E17.76381
G1 X156.229 Y78.622 E17.8332
G1 X155.519 Y78.061 E17.90543
G1 X154.966 Y77.661 E17.95991
G1 X154.252 Y77.194 E18.02802
G1 X153.502 Y76.79 E18.09602
G1 X152.688 Y76.443 E18.16665
G1 X151.705 Y76.132 E18.24895
G1 X150.99 Y75.968 E18.30751
G1 X150.217 Y75.84 E18.37005
G1 X149.365 Y75.777 E18.43825
G1 X148.457 Y75.79 E18.51074
G1 X71.537 Y75.767 E24.65083
G1 X70.336 Y75.831 E24.74683
G1 X69.494 Y75.969 E24.81494
G1 X68.66 Y76.179 E24.88359
G1 X67.851 Y76.465 E24.95209
G1 X67.064 Y76.824 E25.02113
G1 X66.322 Y77.248 E25.08935
G1 X65.597 Y77.752 E25.15983
G1 X64.955 Y78.291 E25.22675
G1 X64.435 Y78.813 E25.28556
M204 S500
;;retract;;
G1 F1500 E20.28556
G0 F7200 X61.429 Y136.099
M204 S3000
G1 F1500 E25.28556
G1 F1200 X67.917 Y142.588 E26.01804
G1 X67.358 Y142.372 E26.06588
G1 X66.639 Y142.114 E26.12686
G1 X65.998 Y141.825 E26.18298
G1 X65.313 Y141.44 E26.24571
G1 X64.639 Y140.977 E26.31098
G1 X64.05 Y140.488 E26.37209
G1 X63.501 Y139.945 E26.43373
G1 X63 Y139.354 E26.49557
G1 X62.53 Y138.682 E26.56103
G1 X62.147 Y138.016 E26.62236
G1 X61.82 Y137.308 E26.68461
G1 X61.551 Y136.554 E26.74852
G1 X61.364 Y135.856 E26.8062
G1 X61.284 Y135.492 E26.83595
G1 X61.149 Y134.73 E26.89772
G1 X61.083 Y133.972 E26.95846
G1 X61.083 Y133.491 E26.99685
G1 X70.991 Y143.399 E28.11535
G1 X71.751 Y143.432 E28.17608
G1 X73.285 Y143.43 E28.29853
G1 X61.091 Y131.236 E29.67509
G1 X61.089 Y128.972 E29.85581
G1 X75.547 Y143.43 E31.48796
G1 X77.81 Y143.429 E31.6686
G1 X61.089 Y126.708 E33.55621
G1 X61.087 Y124.444 E33.73693
G1 X80.072 Y143.428 E35.88007
G1 X82.334 Y143.428 E36.06063
G1 X61.086 Y122.18 E38.45929
G1 X61.084 Y119.916 E38.64001
G1 X84.596 Y143.427 E41.29419
G1 X86.858 Y143.426 E41.47475
G1 X61.084 Y117.652 E44.38435
G1 X61.082 Y115.388 E44.56507
G1 X89.12 Y143.426 E47.73024
G1 X91.382 Y143.425 E47.9108
G1 X61.081 Y113.124 E51.33144
G1 X61.079 Y110.86 E51.51216
G1 X93.644 Y143.424 E55.18833
G1 X95.906 Y143.423 E55.36889
G1 X61.078 Y108.596 E59.30052
G1 X61.077 Y106.332 E59.48124
G1 X98.168 Y143.423 E63.66839
G1 X100.43 Y143.422 E63.84896
G1 X61.076 Y104.068 E68.29158
G1 X61.074 Y101.804 E68.4723
G1 X102.692 Y143.421 E73.17044
G1 X104.954 Y143.421 E73.351
G1 X61.073 Y99.54 E78.30467
G1 X61.072 Y97.276 E78.48539
G1 X107.216 Y143.42 E83.69453
G1 X109.478 Y143.419 E83.87509
G1 X61.071 Y95.012 E89.33969
G1 X61.069 Y92.748 E89.52041
G1 X111.74 Y143.418 E95.24053
G1 X114.002 Y143.418 E95.4211
G1 X61.068 Y90.484 E101.39674
G1 X61.067 Y88.22 E101.57747
G1 X116.264 Y143.417 E107.80858
G1 X118.526 Y143.416 E107.98914
G1 X61.122 Y86.012 E114.4694
G1 X61.229 Y85.288 E114.52782
G1 X61.382 Y84.61 E114.58331
G1 X61.527 Y84.154 E114.6215
G1 X120.788 Y143.416 E121.31145
G1 X123.05 Y143.415 E121.49201
G1 X62.215 Y82.579 E128.35965
G1 X62.735 Y81.789 E128.43515
G1 X63.155 Y81.257 E128.48925
G1 X125.312 Y143.414 E135.50607
G1 X127.575 Y143.414 E135.68672
G1 X64.288 Y80.127 E142.8311
G1 X64.808 Y79.597 E142.89037
G1 X65.01 Y79.37 E142.91462
G1 X65.4 Y78.976 E142.95888
G1 X129.837 Y143.413 E150.23308
G1 X132.099 Y143.413 E150.41364
G1 X66.662 Y77.975 E157.8008
G1 X67.42 Y77.541 E157.87052
G1 X68.154 Y77.205 E157.93496
G1 X134.361 Y143.412 E165.40897
G1 X136.623 Y143.411 E165.58954
G1 X69.921 Y76.709 E173.11944
G1 X70.433 Y76.626 E173.16084
G1 X70.999 Y76.601 E173.20606
G1 X71.012 Y76.595 E173.20721
G1 X71.567 Y76.567 E173.25157
G1 X72.041 Y76.566 E173.2894
G1 X138.885 Y143.411 E180.83539
G1 X141.147 Y143.41 E181.01595
G1 X74.304 Y76.567 E188.56176
G1 X76.568 Y76.568 E188.74249
G1 X143.409 Y143.409 E196.28808
G1 X145.671 Y143.409 E196.46864
G1 X78.831 Y76.569 E204.01412
G1 X81.095 Y76.569 E204.19484
G1 X147.933 Y143.408 E211.74015
G1 X148.534 Y143.408 E211.78812
G1 X149.13 Y143.421 E211.83571
G1 X149.818 Y143.394 E211.89067
G1 X150.139 Y143.351 E211.91652
G1 X83.358 Y76.57 E219.45534
G1 X85.622 Y76.571 E219.63606
G1 X151.989 Y142.938 E227.12814
G1 X152.43 Y142.799 E227.16505
G1 X153.149 Y142.492 E227.22746
G1 X153.576 Y142.262 E227.26617
G1 X87.885 Y76.571 E234.68194
G1 X90.148 Y76.571 E234.86258
G1 X154.951 Y141.375 E242.17816
G1 X155.917 Y140.586 E242.27772
G1 X156.17 Y140.33 E242.30645
G1 X92.411 Y76.572 E249.50406
G1 X94.675 Y76.573 E249.68479
G1 X157.194 Y139.092 E256.74247
G1 X157.41 Y138.78 E256.77276
G1 X157.792 Y138.104 E256.83474
G1 X158.003 Y137.638 E256.87558
G1 X96.938 Y76.574 E263.76907
G1 X99.202 Y76.574 E263.94979
G1 X158.573 Y135.946 E270.65216
G1 X158.761 Y135.161 E270.71659
G1 X158.869 Y134.374 E270.78
G1 X158.884 Y133.994 E270.81036
G1 X101.465 Y76.575 E277.29231
G1 X103.729 Y76.576 E277.47303
G1 X158.905 Y131.753 E283.70183
G1 X158.905 Y129.49 E283.88248
G1 X105.992 Y76.576 E289.85581
G1 X108.255 Y76.577 E290.03645
G1 X158.905 Y127.227 E295.75426
G1 X158.905 Y124.964 E295.9349
G1 X110.519 Y76.578 E301.39713
G1 X112.782 Y76.578 E301.57778
G1 X158.905 Y122.702 E306.78459
G1 X158.905 Y120.439 E306.96524
G1 X115.046 Y76.579 E311.91648
G1 X117.309 Y76.58 E312.09712
G1 X158.905 Y118.176 E316.79283
G1 X158.905 Y115.913 E316.97348
G1 X119.573 Y76.581 E321.41361
G1 X121.836 Y76.581 E321.59426
G1 X158.905 Y113.651 E325.77898
G1 X158.905 Y111.388 E325.95962
G1 X124.1 Y76.582 E329.88877
G1 X126.363 Y76.583 E330.06941
G1 X158.905 Y109.125 E333.74303
G1 X158.905 Y106.862 E333.92368
G1 X128.626 Y76.583 E337.34183
G1 X130.89 Y76.584 E337.52255
G1 X158.905 Y104.6 E340.68519
G1 X158.905 Y102.337 E340.86583
G1 X133.153 Y76.585 E343.77294
G1 X135.417 Y76.586 E343.95366
G1 X158.905 Y100.074 E346.60519
G1 X158.905 Y97.811 E346.78583
G1 X137.68 Y76.586 E349.18189
G1 X139.944 Y76.587 E349.36261
G1 X158.905 Y95.549 E351.50315
G1 X158.905 Y93.286 E351.68379
G1 X142.207 Y76.588 E353.56881
G1 X144.471 Y76.588 E353.74953
G1 X158.905 Y91.023 E355.37902
G1 X158.905 Y88.76 E355.55966
G1 X146.734 Y76.589 E356.93363
G1 X148.476 Y76.59 E357.07269
G1 X148.99 Y76.582 E357.11372
G1 X158.905 Y86.497 E358.23301
G1 X158.848 Y85.414 E358.31958
G1 X158.721 Y84.634 E358.38266
G1 X158.537 Y83.902 E358.44291
G1 X158.39 Y83.41 E358.4839
G1 X158.012 Y82.366 E358.57253
G1 X157.675 Y81.677 E358.63376
G1 X157.268 Y81.001 E358.69674
G1 X156.804 Y80.368 E358.75939
G1 X156.283 Y79.776 E358.82234
G1 X155.708 Y79.231 E358.88559
G1 X155.03 Y78.694 E358.95463
G1 X154.512 Y78.321 E359.00558
G1 X153.842 Y77.882 E359.06952
G1 X153.16 Y77.514 E359.13138
G1 X152.418 Y77.196 E359.19582
G1 X151.612 Y76.941 E359.2633
G1 X158.52 Y83.85 E360.04319
M204 S500
;;retract;;
G1 F1500 E355.04319
G0 F600 X158.52 Y83.85 Z0.47
G0 F7200 X158.244 Y138.315
;TIME_ELAPSED:233.849635

;LAYER:-2
M204 S3000
;TYPE:SUPPORT
G1 F1500 E360.04319
G1 X153.908 Y142.652 E360.45369
G1 X154.112 Y142.542 E360.46921
G1 X154.767 Y142.112 E360.52165
G1 X155.328 Y141.709 E360.56789
G1 X156.244 Y140.966 E360.64684
G1 X156.825 Y140.381 E360.70202
G1 X157.352 Y139.745 E360.75731
G1 X157.825 Y139.06 E360.81303
G1 X158.242 Y138.322 E360.86977
G1 X158.582 Y137.569 E360.92507
G1 X158.837 Y136.839 E360.97683
G1 X159 Y136.287 E361.01536
G1 X151.727 Y143.559 E361.70379
G1 X150.675 Y143.788 E361.77585
G1 X150.159 Y143.855 E361.81068
G1 X159.331 Y134.683 E362.67892
G1 X159.369 Y134.406 E362.69763
G1 X159.411 Y133.33 E362.76971
G1 X148.826 Y143.915 E363.77171
G1 X148.542 Y143.908 E363.79072
G1 X147.561 Y143.908 E363.85639
G1 X159.405 Y132.063 E364.97761
G1 X159.405 Y130.79 E365.06282
G1 X146.288 Y143.908 E366.30455
G1 X145.015 Y143.908 E366.38976
G1 X159.405 Y129.517 E367.75199
G1 X159.405 Y128.245 E367.83713
G1 X143.742 Y143.908 E369.31982
G1 X142.469 Y143.908 E369.40503
G1 X159.405 Y126.972 E371.00822
G1 X159.405 Y125.699 E371.09343
G1 X141.197 Y143.908 E372.81708
G1 X139.924 Y143.908 E372.90229
G1 X159.405 Y124.426 E374.74644
G1 X159.405 Y123.153 E374.83165
G1 X138.651 Y143.908 E376.79631
G1 X137.378 Y143.908 E376.88152
G1 X159.405 Y121.881 E378.96664
G1 X159.405 Y120.608 E379.05185
G1 X136.106 Y143.908 E381.25742
G1 X134.833 Y143.908 E381.34263
G1 X159.405 Y119.335 E383.66871
G1 X159.405 Y118.062 E383.75392
G1 X133.56 Y143.908 E386.2005
G1 X132.287 Y143.908 E386.28571
G1 X159.405 Y116.789 E388.8528
G1 X159.405 Y115.517 E388.93794
G1 X131.014 Y143.908 E391.62548
G1 X129.742 Y143.908 E391.71062
G1 X159.405 Y114.244 E394.51863
G1 X159.405 Y112.971 E394.60384
G1 X128.469 Y143.908 E397.53234
G1 X127.196 Y143.908 E397.61755
G1 X159.405 Y111.698 E400.66656
G1 X159.405 Y110.426 E400.7517
G1 X125.924 Y143.907 E403.92108
G1 X124.651 Y143.907 E404.00629
G1 X159.405 Y109.153 E407.29616
G1 X159.405 Y107.88 E407.38137
G1 X123.378 Y143.907 E410.79175
G1 X122.106 Y143.907 E410.8769
G1 X159.405 Y106.607 E414.40774
G1 X159.405 Y105.334 E414.49295
G1 X120.833 Y143.907 E418.14429
G1 X119.56 Y143.907 E418.2295
G1 X159.405 Y104.062 E422.0013
G1 X159.405 Y102.789 E422.08651
G1 X118.287 Y143.907 E425.97881
G1 X117.014 Y143.907 E426.06402
G1 X159.405 Y101.516 E430.07683
G1 X159.405 Y100.243 E430.16204
G1 X115.742 Y143.907 E434.29531
G1 X114.469 Y143.907 E434.38052
G1 X159.405 Y98.97 E438.63429
G1 X159.405 Y97.698 E438.71943
G1 X113.196 Y143.907 E443.09366
G1 X111.923 Y143.907 E443.17887
G1 X159.405 Y96.425 E447.6736
G1 X159.405 Y95.152 E447.75881
G1 X110.65 Y143.907 E452.37405
G1 X109.378 Y143.907 E452.45919
G1 X159.405 Y93.879 E457.19489
G1 X159.405 Y92.606 E457.2801
G1 X108.105 Y143.907 E462.1363
G1 X106.832 Y143.907 E462.22151
G1 X159.405 Y91.334 E467.19816
G1 X159.405 Y90.061 E467.28337
G1 X105.559 Y143.907 E472.38053
G1 X104.287 Y143.906 E472.46568
G1 X159.405 Y88.788 E477.68325
G1 X159.405 Y87.515 E477.76846
G1 X103.014 Y143.906 E483.10653
G1 X101.742 Y143.906 E483.19167
G1 X159.392 Y86.256 E488.64893
G1 X159.347 Y85.375 E488.70798
G1 X159.298 Y85.077 E488.72819
G1 X100.469 Y143.906 E494.29705
G1 X99.196 Y143.906 E494.38226
G1 X159.092 Y84.011 E500.05208
G1 X158.796 Y83.034 E500.12041
G1 X97.923 Y143.906 E505.88271
G1 X96.65 Y143.906 E505.96792
G1 X158.442 Y82.114 E511.81727
G1 X158.026 Y81.258 E511.88097
G1 X95.378 Y143.906 E517.81135
G1 X94.105 Y143.906 E517.89656
G1 X157.516 Y80.495 E523.89916
G1 X157.196 Y80.056 E523.93552
G1 X156.955 Y79.783 E523.9599
G1 X92.832 Y143.906 E530.0299
G1 X91.559 Y143.906 E530.11511
