;FLAVOR:Marlin
;TIME:7145.36
;Filament used:6.82744m
;Layer height: 0.15
;MINX:60.266
;MINY:75.756
;MINZ:0.24
;MAXX:159.717
;MAXY:144.234
;MAXZ:20.84
                                  
;Creality Print GCode Generated by CXEngine
;CRSLICE_GIT_HASH:3ff0ab3
;Creality Print Version : V4.3.5.5791
;CXEngine Release Time:2023-06-13 21:35:22
;Gcode Generated Time:2023-07-22 10:47:52
;----------Machine Config--------------
;Machine Name:Creality Ender-3
;Machine Height:250
;Machine Width:220
;Machine Depth:220
;Material name:Ender-PLA_1.75
;Number of Extruders:1
;ExtruderParams[0] Nozzle Diameter:1000
;----------Profile Config---------------
;Layer Height:0.15
;Wall Thickness:1.2
;Top/Bottom Thickness:0.84
;Out Wall Line Width:0.4
;Inner Wall Line Width:0.4
;Inital Layer Height:150
;Wall Line Count:3
;Infill Line Distance:8
;Infill Pattern:grid
;Infill Sparse Density:10
;Infill Wipe Distance:0
;Print Temperature:200
;Bed Temperature:60
;Support Enable:false
;Support Density:20
;Support Angle:51
;Adhesion Type:simpleraft
;machine is belt:false
;machine belt offset:10
;machine belt offset Y:0
;Raft Base Line Spacing:1.6
;Wait Heatup Sync:true
;Enable Ironing:false
;Material Type:PLA
;Max volumetric speed:10
;----------Shell Config----------------
;Outer Wall Wipe Distance:200
;Outer Inset First:false
;Infill Before Walls:false
;Infill Overlap:0.16
;Fill Gaps Between Walls:everywhere
;Minimum Infill Area:15
;Top Surface Skin Layer:0
;Top Layers:6
;Z Seam Alignment:sharpest_corner
;Seam Corner Preference:z_seam_corner_weighted
;Z Seam X:110
;Z Seam Y:220
;Horizontal Expansion:0
;Top/Bottom Pattern:zigzag
;Ironing Pattern:zigzag
;Vase Model:false
;----------Support Config----------------
;Support Type:everywhere
;Support Pattern:zigzag
;Support Infill Layer Thickness:0.15
;Minimum Support Area:5
;Enable Support Roof:true
;Support Roof Thickness:0.8
;Support Roof Pattern:lines
;Connect Support Lines:0
;Connect Support ZigZags:1
;Minimum Support X/Y Distance:0.2
;Support Line Distance:2
; ---------PrintSpeed & Travel----------
;Enable Print Cool:true
;Avoid Printed Parts Traveling:true
;Enable Retraction:true
;Retraction Distance:5
;Retraction Speed:25
;Retraction Prime Speed:25
;Maximum Retraction Count:100
;Minimum Extrusion Distance Window:2
;Z Hop When Retracted:false
;Z Hop Height:0.2
;Retract Before Outer Wall:true

;Outer Wall Speed:50
;Inner Wall Speed:50
;Infill Speed:50
;Top/Bottom Speed:50
;Travel Speed:120
;Initial Layer Speed:25
;Skirt/Brim Speed:25
;Prime Tower Speed:60
;Outer Wall Acceleration:500
;Inner Wall Acceleration:500
;Infill Acceleration:500
;Top/Bottom Acceleration:500
;Travel Acceleration:500
;Initial Layer Print Acceleration:500
;Initial Layer Travel Acceleration:500
;Skirt/Brim Acceleration:500
;Combing Mode:off
; --------SpecialModel&Mesh Fixes--------
;Union Overlapping Volum:true
;Remove All Holes:false
;Maximum Travel Resolution:0.25
;Maximum Deviation:0.05
;Maximum Model Angle:0.872665
;IS Mold Print:false
;Make Overhang Printable:false
;Enable Coasting:false
;Coasting Volumes:0.064
;Coasting Speed:0.9
;Raft AirGap:0.25
;Layer0 ZOverLap:0.13
;---------------------End of Head--------------------------
M140 S60
M105
M190 S60
M104 S200
M105
M109 S200
M82 ;absolute extrusion mode
M220 S100 ;Reset Feedrate
M221 S100 ;Reset Flowrate

G28 ;Home

G92 E0 ;Reset Extruder
G1 Z2.0 F3000 ;Move Z Axis up
G1 X10.1 Y20 Z0.28 F5000.0 ;Move to start position
G1 X10.1 Y145.0 Z0.28 F1500.0 E15 ;Draw the first line
G1 X10.4 Y145.0 Z0.28 F5000.0 ;Move to side a little
G1 X10.4 Y20 Z0.28 F1500.0 E30 ;Draw the second line
G92 E0  ;Reset Extruder
G1 E-1.0000 F1800 ;Retract a bit
G1 Z2.0 F3000 ;Move Z Axis up
G1 E0.0000 F1800 

G92 E0
G92 E0
G1 F1500 E-5
;LAYER_COUNT:133

;LAYER:-4
M106 S0
M106 P2 S0
M204 S500
G0 F7200 X63.086 Y79.358 Z0.24
M204 S3000
;TYPE:SUPPORT-INTERFACE
G1 F1500 E0
G1 F1200 X62.519 Y79.996 E0.06813
G1 X62.007 Y80.685 E0.13666
G1 X61.561 Y81.416 E0.20501
G1 X61.173 Y82.204 E0.27512
G1 X60.889 Y82.934 E0.33765
G1 X60.62 Y83.856 E0.41432
G1 X60.461 Y84.576 E0.47317
G1 X60.33 Y85.503 E0.54791
G1 X60.293 Y86.436 E0.62244
G1 X60.266 Y133.035 E4.34218
G1 X60.293 Y133.76 E4.40009
G1 X60.393 Y134.602 E4.46777
G1 X60.569 Y135.45 E4.53691
G1 X60.816 Y136.253 E4.60397
G1 X61.144 Y137.064 E4.6738
G1 X61.543 Y137.839 E4.74338
G1 X62.002 Y138.56 E4.81161
G1 X62.527 Y139.243 E4.88037
G1 X63.112 Y139.878 E4.94929
G1 X63.737 Y140.444 E5.0166
G1 X64.164 Y140.878 E5.0652
G1 X64.528 Y141.29 E5.10909
G1 X65.155 Y141.885 E5.17808
G1 X65.812 Y142.406 E5.24502
G1 X66.526 Y142.878 E5.31334
G1 X67.28 Y143.283 E5.38166
G1 X68.092 Y143.63 E5.45215
G1 X68.899 Y143.89 E5.51983
G1 X69.648 Y144.061 E5.58115
G1 X70.569 Y144.194 E5.65544
G1 X71.509 Y144.234 E5.73054
G1 X148.962 Y144.207 E11.91317
G1 X149.668 Y144.184 E11.96956
G1 X150.507 Y144.086 E12.03699
G1 X151.437 Y143.893 E12.1128
G1 X151.784 Y143.801 E12.14146
G1 X152.719 Y143.505 E12.21975
G1 X152.981 Y143.412 E12.24194
G1 X153.628 Y143.141 E12.29793
G1 X154.394 Y142.744 E12.3668
G1 X155.12 Y142.284 E12.43541
G1 X155.812 Y141.752 E12.50508
G1 X156.425 Y141.187 E12.57163
G1 X156.725 Y140.888 E12.60544
G1 X157.009 Y140.587 E12.63847
G1 X157.616 Y139.852 E12.71457
G1 X158.096 Y139.143 E12.78291
G1 X158.518 Y138.38 E12.85251
G1 X158.831 Y137.673 E12.91423
G1 X158.942 Y137.394 E12.9382
G1 X159.211 Y136.605 E13.00474
G1 X159.369 Y136.016 E13.05342
G1 X159.537 Y135.281 E13.1136
G1 X159.668 Y134.361 E13.18778
G1 X159.707 Y133.425 E13.26256
G1 X159.707 Y86.822 E16.98262
G1 X159.717 Y86.297 E17.02453
G1 X159.684 Y85.542 E17.08486
G1 X159.571 Y84.719 E17.15117
G1 X159.382 Y83.878 E17.21998
G1 X159.288 Y83.539 E17.24806
G1 X159.029 Y82.744 E17.3148
G1 X158.704 Y81.982 E17.38093
G1 X158.293 Y81.219 E17.45011
G1 X157.843 Y80.535 E17.51546
G1 X157.398 Y79.917 E17.57625
G1 X157.059 Y79.481 E17.62034
G1 X156.542 Y78.892 E17.6829
G1 X155.922 Y78.301 E17.75127
G1 X155.247 Y77.765 E17.82008
G1 X154.537 Y77.298 E17.88791
G1 X153.783 Y76.892 E17.95627
G1 X153.103 Y76.601 E18.01531
G1 X152.854 Y76.51 E18.03647
G1 X152.115 Y76.271 E18.09847
G1 X151.605 Y76.132 E18.14067
G1 X150.872 Y75.965 E18.20068
G1 X149.946 Y75.832 E18.27536
G1 X149.008 Y75.793 E18.35029
G1 X135.907 Y75.792 E19.39607
G1 X133.156 Y75.767 E19.61568
G1 X129.631 Y75.758 E19.89706
G1 X129.176 Y75.768 E19.93339
G1 X128.856 Y75.787 E19.95898
G1 X128.257 Y75.791 E20.00679
G1 X127.327 Y75.758 E20.08108
G1 X124.865 Y75.767 E20.27761
G1 X122.95 Y75.793 E20.43048
G1 X71.659 Y75.756 E24.52475
G1 X70.857 Y75.784 E24.58881
G1 X70.02 Y75.885 E24.65611
G1 X69.176 Y76.061 E24.72493
G1 X68.346 Y76.317 E24.79427
G1 X67.661 Y76.597 E24.85334
G1 X67.313 Y76.765 E24.88418
G1 X66.744 Y77.015 E24.93379
G1 X65.869 Y77.373 E25.00926
G1 X65.1 Y77.78 E25.07871
G1 X64.391 Y78.24 E25.14618
G1 X63.704 Y78.778 E25.21583
G1 X63.086 Y79.358 E25.28348
M204 S500
;;retract;;
G1 F1500 E20.28348
G0 F7200 X86.688 Y106.253
M204 S3000
G1 F1500 E25.28348
G1 F1200 X86.934 Y105.616 E25.33799
G1 X87.256 Y105.02 E25.39207
G1 X87.647 Y104.473 E25.44574
G1 X88.114 Y103.969 E25.50059
G1 X88.627 Y103.539 E25.55402
G1 X89.215 Y103.159 E25.6099
G1 X89.833 Y102.867 E25.66447
G1 X90.487 Y102.652 E25.71942
G1 X91.135 Y102.526 E25.77211
G1 X91.812 Y102.481 E25.82627
G1 X121.412 Y102.482 E28.18907
G1 X122.331 Y102.566 E28.26274
G1 X123.028 Y102.738 E28.32005
G1 X123.646 Y102.979 E28.37299
G1 X124.241 Y103.301 E28.427
G1 X124.787 Y103.692 E28.48061
G1 X125.287 Y104.154 E28.53495
G1 X125.744 Y104.703 E28.59197
G1 X126.096 Y105.252 E28.64403
G1 X126.395 Y105.884 E28.69984
G1 X126.609 Y106.538 E28.75476
G1 X126.734 Y107.186 E28.80744
G1 X126.778 Y107.852 E28.86072
G1 X126.78 Y118.348 E29.69856
G1 X126.698 Y119.276 E29.77293
G1 X126.521 Y119.985 E29.83126
G1 X126.287 Y120.589 E29.88296
G1 X125.961 Y121.193 E29.93775
G1 X125.565 Y121.747 E29.99211
G1 X125.1 Y122.248 E30.04667
G1 X124.59 Y122.675 E30.09977
G1 X124.002 Y123.055 E30.15565
G1 X123.384 Y123.347 E30.21021
G1 X122.73 Y123.562 E30.26517
G1 X122.064 Y123.69 E30.3193
G1 X121.405 Y123.733 E30.37202
G1 X91.801 Y123.732 E32.73514
G1 X90.876 Y123.649 E32.80927
G1 X90.206 Y123.482 E32.86439
G1 X89.569 Y123.236 E32.9189
G1 X88.971 Y122.912 E32.97319
G1 X88.417 Y122.515 E33.0276
G1 X87.936 Y122.07 E33.0799
G1 X87.478 Y121.522 E33.13691
G1 X87.111 Y120.953 E33.19096
G1 X86.82 Y120.336 E33.24542
G1 X86.606 Y119.682 E33.30035
G1 X86.48 Y119.034 E33.35304
G1 X86.435 Y118.36 E33.40696
G1 X86.438 Y107.846 E34.24623
G1 X86.519 Y106.937 E34.31908
G1 X86.688 Y106.253 E34.37532
M204 S500
;;retract;;
G1 F1500 E29.37532
G0 F7200 X88.863 Y102.439
M204 S3000
G1 F1500 E34.37532
G1 F1200 X65.134 Y78.71 E37.05406
G1 X65.5 Y78.474 E37.08882
G1 X66.215 Y78.095 E37.15342
G1 X66.616 Y77.93 E37.18803
G1 X90.495 Y101.809 E39.8837
G1 X89.533 Y102.123 E39.96448
G1 X88.828 Y102.458 E40.02678
G1 X88.178 Y102.872 E40.0883
G1 X87.556 Y103.395 E40.15317
G1 X63.874 Y79.713 E42.8266
G1 X63.658 Y79.917 E42.85032
G1 X63.14 Y80.502 E42.91269
G1 X62.824 Y80.926 E42.9549
G1 X86.547 Y104.649 E45.63296
G1 X86.208 Y105.278 E45.68999
G1 X85.845 Y106.21 E45.76983
G1 X61.978 Y82.343 E48.46415
G1 X61.647 Y83.194 E48.53704
G1 X61.402 Y84.029 E48.6065
G1 X85.636 Y108.264 E51.3423
G1 X85.636 Y110.527 E51.52294
G1 X61.11 Y86 E54.2917
G1 X61.093 Y86.46 E54.32845
G1 X61.091 Y88.244 E54.47086
G1 X85.636 Y112.789 E57.24171
G1 X85.636 Y115.051 E57.42227
G1 X61.089 Y90.505 E60.19329
G1 X61.088 Y92.766 E60.37377
G1 X85.636 Y117.314 E63.14496
G1 X85.636 Y118.402 E63.23181
G1 X85.682 Y119.12 E63.28924
G1 X85.805 Y119.746 E63.34017
G1 X61.087 Y95.028 E66.13055
G1 X61.086 Y97.29 E66.31111
G1 X107.216 Y143.42 E71.51867
G1 X104.955 Y143.421 E71.69915
G1 X61.084 Y99.551 E76.65163
G1 X61.083 Y101.812 E76.83211
G1 X102.693 Y143.422 E81.52941
G1 X100.431 Y143.423 E81.70997
G1 X61.082 Y104.074 E86.15203
G1 X61.081 Y106.336 E86.33259
G1 X98.169 Y143.423 E90.51935
G1 X95.907 Y143.424 E90.69991
G1 X61.079 Y108.597 E94.63154
G1 X61.078 Y110.858 E94.81202
G1 X93.644 Y143.425 E98.48841
G1 X91.382 Y143.426 E98.66897
G1 X61.077 Y113.12 E102.09012
G1 X61.076 Y115.382 E102.27068
G1 X89.12 Y143.426 E105.43653
G1 X86.858 Y143.427 E105.61709
G1 X61.074 Y117.643 E108.52781
G1 X61.073 Y119.904 E108.7083
G1 X84.596 Y143.428 E111.36383
G1 X82.334 Y143.428 E111.5444
G1 X61.072 Y122.166 E113.94463
G1 X61.07 Y124.427 E114.12512
G1 X80.072 Y143.429 E116.27023
G1 X77.811 Y143.43 E116.45071
G1 X61.069 Y126.689 E118.34064
G1 X61.068 Y128.95 E118.52112
G1 X75.549 Y143.431 E120.15586
G1 X73.287 Y143.432 E120.33642
G1 X61.067 Y131.212 E121.71592
G1 X61.066 Y133.014 E121.85976
G1 X61.092 Y133.706 E121.91504
G1 X61.182 Y134.469 E121.97637
G1 X61.347 Y135.261 E122.04095
G1 X61.569 Y135.982 E122.10117
G1 X61.745 Y136.416 E122.13855
G1 X68.085 Y142.756 E122.85427
G1 X68.373 Y142.88 E122.8793
G1 X69.113 Y143.118 E122.94135
G1 X69.789 Y143.272 E122.99669
G1 X70.641 Y143.396 E123.06542
G1 X71.002 Y143.41 E123.09425
G1 X61.083 Y133.491 E124.214
M204 S500
;;retract;;
G1 F1500 E119.214
G0 F7200 X92.854 Y124.532
M204 S3000
G1 F1500 E124.214
G1 F1200 X111.74 Y143.418 E126.34601
G1 X109.478 Y143.419 E126.52657
G1 X90.414 Y124.356 E128.67863
G1 X90.765 Y124.443 E128.70749
G1 X91.829 Y124.533 E128.79273
G1 X95.117 Y124.532 E129.05519
G1 X114.002 Y143.418 E131.18715
G1 X116.264 Y143.417 E131.36771
G1 X97.379 Y124.532 E133.49961
G1 X99.642 Y124.532 E133.68026
G1 X118.526 Y143.416 E135.81205
G1 X120.788 Y143.416 E135.99261
G1 X101.905 Y124.532 E138.12434
G1 X104.168 Y124.532 E138.30498
G1 X123.05 Y143.415 E140.4366
G1 X125.312 Y143.414 E140.61717
G1 X106.43 Y124.532 E142.74873
G1 X108.692 Y124.532 E142.92929
G1 X127.574 Y143.413 E145.0608
G1 X129.836 Y143.413 E145.24136
G1 X110.955 Y124.532 E147.37281
G1 X113.218 Y124.532 E147.55345
G1 X132.098 Y143.412 E149.68479
G1 X134.36 Y143.411 E149.86535
G1 X115.481 Y124.532 E151.99658
G1 X117.743 Y124.532 E152.17714
G1 X136.622 Y143.41 E154.30831
G1 X138.884 Y143.409 E154.48887
G1 X120.006 Y124.532 E156.61993
G1 X121.447 Y124.532 E156.73496
G1 X122.219 Y124.481 E156.79671
G1 X141.146 Y143.409 E158.93341
G1 X143.408 Y143.408 E159.11398
G1 X123.959 Y123.959 E161.30955
G1 X124.392 Y123.754 E161.34779
G1 X125.039 Y123.342 E161.40902
G1 X125.346 Y123.083 E161.44108
G1 X145.67 Y143.407 E163.73543
G1 X147.932 Y143.406 E163.91599
G1 X126.432 Y121.906 E166.3431
G1 X126.64 Y121.617 E166.37152
G1 X126.998 Y120.957 E166.43146
G1 X127.208 Y120.42 E166.47748
G1 X150.115 Y143.327 E169.06342
G1 X150.373 Y143.297 E169.08416
G1 X151.258 Y143.113 E169.15631
G1 X151.552 Y143.035 E169.18059
G1 X151.957 Y142.906 E169.21452
G1 X127.58 Y118.529 E171.96641
G1 X127.578 Y116.264 E172.14721
G1 X153.578 Y142.264 E175.08231
G1 X153.994 Y142.051 E175.11962
G1 X154.662 Y141.628 E175.18274
G1 X154.967 Y141.39 E175.21362
G1 X127.577 Y114.001 E178.30558
G1 X127.576 Y111.737 E178.4863
G1 X156.159 Y140.32 E181.713
G1 X156.407 Y140.058 E181.7418
G1 X156.977 Y139.369 E181.81318
G1 X157.176 Y139.074 E181.84158
G1 X127.576 Y109.474 E185.18309
G1 X127.577 Y107.81 E185.31591
G1 X127.532 Y107.167 E185.36737
G1 X157.981 Y137.616 E188.80471
G1 X158.089 Y137.372 E188.82601
G1 X158.192 Y137.114 E188.84819
G1 X158.449 Y136.359 E188.91185
G1 X158.562 Y135.934 E188.94695
G1 X99.202 Y76.575 E195.64797
G1 X101.466 Y76.576 E195.82869
G1 X158.881 Y133.991 E202.31019
G1 X158.907 Y133.399 E202.35749
G1 X158.905 Y131.753 E202.48888
G1 X103.731 Y76.578 E208.71746
G1 X105.996 Y76.58 E208.89826
G1 X158.905 Y129.49 E214.87114
G1 X158.905 Y127.227 E215.05178
G1 X108.26 Y76.581 E220.76909
G1 X110.525 Y76.583 E220.94989
G1 X158.905 Y124.964 E226.4115
G1 X158.905 Y122.702 E226.59206
G1 X112.789 Y76.585 E231.79809
G1 X115.053 Y76.586 E231.97881
G1 X158.905 Y120.439 E236.92926
G1 X158.905 Y118.176 E237.1099
G1 X117.318 Y76.588 E241.80466
G1 X119.582 Y76.59 E241.98538
G1 X158.905 Y115.913 E246.4245
G1 X158.905 Y113.651 E246.60506
G1 X121.846 Y76.591 E250.78866
G1 X122.958 Y76.593 E250.87743
G1 X124.095 Y76.577 E250.96819
G1 X158.905 Y111.388 E254.8979
G1 X158.905 Y109.125 E255.07855
G1 X126.342 Y76.561 E258.7546
G1 X127.307 Y76.558 E258.83163
G1 X128.236 Y76.591 E258.90583
G1 X128.623 Y76.58 E258.93674
G1 X158.905 Y106.862 E262.35523
G1 X158.905 Y104.6 E262.53579
G1 X130.867 Y76.561 E265.70102
G1 X133.136 Y76.568 E265.88214
G1 X158.905 Y102.337 E268.79117
G1 X158.905 Y100.074 E268.97181
G1 X135.418 Y76.587 E271.62323
G1 X137.687 Y76.593 E271.80435
G1 X158.905 Y97.811 E274.19962
G1 X158.905 Y95.549 E274.38018
G1 X139.949 Y76.593 E276.5201
G1 X142.212 Y76.593 E276.70074
G1 X158.905 Y93.286 E278.58519
G1 X158.905 Y91.023 E278.76584
G1 X144.475 Y76.593 E280.39482
G1 X146.738 Y76.593 E280.57546
G1 X158.905 Y88.76 E281.94898
G1 X158.907 Y86.808 E282.10479
G1 X158.917 Y86.312 E282.1444
G1 X158.885 Y85.606 E282.20081
G1 X158.783 Y84.858 E282.26107
G1 X158.565 Y83.894 E282.33996
G1 X151.627 Y76.957 E283.12313
G1 X150.726 Y76.753 E283.19687
G1 X149.875 Y76.63 E283.26551
G1 X149.002 Y76.594 E283.33525
G1 X158.913 Y86.505 E284.45409
M204 S500
;;retract;;
G1 F1500 E279.45409
G0 F7200 X119.783 Y101.681
M204 S3000
G1 F1500 E284.45409
G1 F1200 X94.673 Y76.571 E287.28873
G1 X96.938 Y76.574 E287.46953
G1 X122.106 Y101.741 E290.31065
G1 X121.429 Y101.681 E290.36491
G1 X117.52 Y101.681 E290.67694
G1 X92.409 Y76.57 E293.51169
G1 X90.145 Y76.569 E293.69241
G1 X115.257 Y101.681 E296.52727
G1 X112.994 Y101.681 E296.70791
G1 X87.88 Y76.566 E299.54305
G1 X85.616 Y76.565 E299.72377
G1 X110.732 Y101.681 E302.55909
G1 X108.469 Y101.681 E302.73973
G1 X83.352 Y76.564 E305.57515
G1 X81.087 Y76.561 E305.75595
G1 X106.206 Y101.681 E308.59166
G1 X103.943 Y101.681 E308.7723
G1 X78.823 Y76.56 E311.60812
G1 X76.559 Y76.559 E311.78884
G1 X101.681 Y101.681 E314.62483
G1 X99.418 Y101.681 E314.80548
G1 X74.294 Y76.557 E317.64169
G1 X72.03 Y76.555 E317.82241
G1 X97.155 Y101.681 E320.6588
G1 X94.893 Y101.681 E320.83936
G1 X69.931 Y76.719 E323.65728
G1 X69.379 Y76.836 E323.70233
G1 X68.614 Y77.071 E323.76621
G1 X68.192 Y77.243 E323.80258
G1 X92.63 Y101.681 E326.56136
G1 X91.77 Y101.682 E326.63001
