;FLAVOR:Marlin
;TIME:7630.3
;Filament used:8.47356m
;Layer height: 0.2
;MINX:60.085
;MINY:75.586
;MINZ:0.24
;MAXX:159.849
;MAXY:144.419
;MAXZ:19.89
                                   
;Creality Print GCode Generated by CXEngine
;CRSLICE_GIT_HASH:3ff0ab3
;Creality Print Version : V4.3.5.5791
;CXEngine Release Time:2023-06-13 21:35:22
;Gcode Generated Time:2023-07-20 11:49:05
;----------Machine Config--------------
;Machine Name:Creality Ender-3
;Machine Height:250
;Machine Width:220
;Machine Depth:220
;Material name:Ender-PLA_1.75
;Number of Extruders:1
;ExtruderParams[0] Nozzle Diameter:1000
;----------Profile Config---------------
;Layer Height:0.2
;Wall Thickness:0.8
;Top/Bottom Thickness:0.8
;Out Wall Line Width:0.4
;Inner Wall Line Width:0.4
;Inital Layer Height:200
;Wall Line Count:2
;Infill Line Distance:8
;Infill Pattern:grid
;Infill Sparse Density:10
;Infill Wipe Distance:0
;Print Temperature:200
;Bed Temperature:60
;Support Enable:false
;Support Density:20
;Support Angle:45
;Adhesion Type:simpleraft
;machine is belt:false
;machine belt offset:10
;machine belt offset Y:0
;Raft Base Line Spacing:1.6
;Wait Heatup Sync:true
;Enable Ironing:false
;Material Type:PLA
;Max volumetric speed:10
;----------Shell Config----------------
;Outer Wall Wipe Distance:200
;Outer Inset First:false
;Infill Before Walls:false
;Infill Overlap:0.16
;Fill Gaps Between Walls:everywhere
;Minimum Infill Area:15
;Top Surface Skin Layer:0
;Top Layers:4
;Z Seam Alignment:sharpest_corner
;Seam Corner Preference:z_seam_corner_weighted
;Z Seam X:110
;Z Seam Y:220
;Horizontal Expansion:0
;Top/Bottom Pattern:zigzag
;Ironing Pattern:zigzag
;Vase Model:false
;----------Support Config----------------
;Support Type:everywhere
;Support Pattern:zigzag
;Support Infill Layer Thickness:0.15
;Minimum Support Area:5
;Enable Support Roof:true
;Support Roof Thickness:0.8
;Support Roof Pattern:lines
;Connect Support Lines:0
;Connect Support ZigZags:1
;Minimum Support X/Y Distance:0.2
;Support Line Distance:2
; ---------PrintSpeed & Travel----------
;Enable Print Cool:true
;Avoid Printed Parts Traveling:true
;Enable Retraction:true
;Retraction Distance:5
;Retraction Speed:25
;Retraction Prime Speed:25
;Maximum Retraction Count:100
;Minimum Extrusion Distance Window:2
;Z Hop When Retracted:false
;Z Hop Height:0.2
;Retract Before Outer Wall:true

;Outer Wall Speed:50
;Inner Wall Speed:50
;Infill Speed:50
;Top/Bottom Speed:50
;Travel Speed:120
;Initial Layer Speed:20
;Skirt/Brim Speed:25
;Prime Tower Speed:60
;Outer Wall Acceleration:500
;Inner Wall Acceleration:500
;Infill Acceleration:500
;Top/Bottom Acceleration:500
;Travel Acceleration:500
;Initial Layer Print Acceleration:500
;Initial Layer Travel Acceleration:500
;Skirt/Brim Acceleration:500
;Combing Mode:off
; --------SpecialModel&Mesh Fixes--------
;Union Overlapping Volum:true
;Remove All Holes:false
;Maximum Travel Resolution:0.25
;Maximum Deviation:0.05
;Maximum Model Angle:0.872665
;IS Mold Print:false
;Make Overhang Printable:false
;Enable Coasting:false
;Coasting Volumes:0.064
;Coasting Speed:0.9
;Raft AirGap:0.25
;Layer0 ZOverLap:0.13
;---------------------End of Head--------------------------
M140 S60
M105
M190 S60
M104 S200
M105
M109 S200
M82 ;absolute extrusion mode
M220 S100 ;Reset Feedrate
M221 S100 ;Reset Flowrate

G28 ;Home

G92 E0 ;Reset Extruder
G1 Z2.0 F3000 ;Move Z Axis up
G1 X10.1 Y20 Z0.28 F5000.0 ;Move to start position
G1 X10.1 Y145.0 Z0.28 F1500.0 E15 ;Draw the first line
G1 X10.4 Y145.0 Z0.28 F5000.0 ;Move to side a little
G1 X10.4 Y20 Z0.28 F1500.0 E30 ;Draw the second line
G92 E0  ;Reset Extruder
G1 E-1.0000 F1800 ;Retract a bit
G1 Z2.0 F3000 ;Move Z Axis up
G1 E0.0000 F1800 

G92 E0
G92 E0
G1 F1500 E-5
;LAYER_COUNT:95

;LAYER:-4
M106 S0
M106 P2 S0
M204 S500
G0 F7200 X64.234 Y78.686 Z0.24
M204 S3000
;TYPE:SUPPORT-INTERFACE
G1 F1500 E0
G1 F1200 X64.003 Y78.941 E0.02747
G1 X63.487 Y79.471 E0.08651
G1 X63.021 Y79.881 E0.13606
G1 X62.434 Y80.499 E0.2041
G1 X61.896 Y81.178 E0.27325
G1 X61.42 Y81.908 E0.34281
G1 X61.026 Y82.643 E0.40938
G1 X60.688 Y83.439 E0.47841
G1 X60.423 Y84.265 E0.54766
G1 X60.253 Y85.014 E0.60897
G1 X60.122 Y85.938 E0.68346
G1 X60.085 Y86.885 E0.75911
G1 X60.085 Y87.095 E0.77588
G1 X60.151 Y133.242 E4.45953
G1 X60.138 Y133.692 E4.49547
G1 X60.185 Y134.543 E4.5635
G1 X60.303 Y135.345 E4.62821
G1 X60.409 Y135.894 E4.67284
G1 X60.689 Y136.984 E4.76268
G1 X60.989 Y137.793 E4.83155
G1 X61.369 Y138.581 E4.90139
G1 X61.805 Y139.313 E4.9694
G1 X62.32 Y140.021 E5.03928
G1 X62.877 Y140.661 E5.10701
G1 X63.505 Y141.261 E5.17634
G1 X64.172 Y141.794 E5.2445
G1 X64.881 Y142.263 E5.31235
G1 X65.638 Y142.673 E5.38107
G1 X66.312 Y142.964 E5.43968
G1 X66.683 Y143.1 E5.47122
G1 X67.361 Y143.379 E5.52974
G1 X67.663 Y143.523 E5.55645
G1 X68.333 Y143.808 E5.61457
G1 X69.177 Y144.08 E5.68535
G1 X69.935 Y144.252 E5.7474
G1 X70.855 Y144.382 E5.82157
G1 X71.798 Y144.419 E5.8969
G1 X109.925 Y144.35 E8.94036
G1 X127.316 Y144.415 E10.3286
G1 X127.926 Y144.396 E10.37732
G1 X128.108 Y144.383 E10.39188
G1 X128.772 Y144.388 E10.44489
G1 X129.722 Y144.417 E10.52075
G1 X149.093 Y144.348 E12.06704
G1 X150.07 Y144.301 E12.14512
G1 X150.915 Y144.177 E12.21329
G1 X151.747 Y143.981 E12.28153
G1 X152.503 Y143.73 E12.34511
G1 X153.013 Y143.537 E12.38864
G1 X154.131 Y143.025 E12.4868
G1 X154.362 Y142.903 E12.50765
G1 X155.024 Y142.501 E12.56947
G1 X155.28 Y142.323 E12.59436
G1 X156.139 Y141.663 E12.68083
G1 X156.344 Y141.486 E12.70245
G1 X156.863 Y140.987 E12.75993
G1 X157.423 Y140.343 E12.82805
G1 X157.923 Y139.652 E12.89613
G1 X158.365 Y138.907 E12.96528
G1 X158.779 Y138.034 E13.04241
G1 X159.056 Y137.381 E13.09903
G1 X159.506 Y136.094 E13.20786
G1 X159.678 Y135.342 E13.26944
G1 X159.81 Y134.419 E13.34387
G1 X159.849 Y133.481 E13.41881
G1 X159.849 Y86.445 E17.17342
G1 X159.829 Y85.894 E17.21744
G1 X159.762 Y85.152 E17.27691
G1 X159.628 Y84.424 E17.33599
G1 X159.574 Y84.172 E17.35657
G1 X159.377 Y83.463 E17.41531
G1 X159.089 Y82.699 E17.48048
G1 X158.756 Y81.918 E17.54825
G1 X158.236 Y80.88 E17.64093
G1 X158.109 Y80.659 E17.66127
G1 X157.724 Y80.064 E17.71785
G1 X157.179 Y79.365 E17.7886
G1 X156.604 Y78.752 E17.85569
G1 X155.964 Y78.181 E17.92415
G1 X155.302 Y77.69 E17.98995
G1 X155.027 Y77.501 E18.01658
G1 X154.559 Y77.208 E18.06066
G1 X153.883 Y76.839 E18.12213
G1 X153.004 Y76.457 E18.19864
G1 X152.616 Y76.311 E18.23173
G1 X151.651 Y75.991 E18.31289
G1 X150.904 Y75.822 E18.37402
G1 X149.985 Y75.69 E18.44813
G1 X149.176 Y75.654 E18.51278
G1 X71.402 Y75.586 E24.72103
G1 X70.245 Y75.651 E24.81354
G1 X69.99 Y75.68 E24.83402
G1 X69.264 Y75.802 E24.89279
G1 X68.437 Y76.02 E24.96106
G1 X67.634 Y76.31 E25.02921
G1 X66.854 Y76.672 E25.09785
G1 X66.116 Y77.102 E25.16603
G1 X65.41 Y77.6 E25.235
G1 X64.76 Y78.15 E25.30297
G1 X64.234 Y78.686 E25.36291
M204 S500
;;retract;;
G1 F1500 E20.36291
G0 F7200 X60.947 Y133.355
M204 S3000
G1 F1500 E25.36291
G1 F1200 X71.185 Y143.592 E26.51861
G1 X70.925 Y143.584 E26.53937
G1 X70.081 Y143.465 E26.60741
G1 X69.386 Y143.307 E26.6643
G1 X68.608 Y143.055 E26.72958
G1 X68.217 Y142.887 E26.76356
G1 X61.223 Y135.893 E27.5531
G1 X61.092 Y135.212 E27.60846
G1 X60.981 Y134.456 E27.66945
G1 X60.938 Y133.687 E27.73093
G1 X60.951 Y133.262 E27.76487
G1 X60.947 Y131.092 E27.93809
G1 X73.469 Y143.614 E29.35168
G1 X75.729 Y143.611 E29.53209
G1 X60.944 Y128.827 E31.20109
G1 X60.941 Y126.56 E31.38205
G1 X77.987 Y143.607 E33.30641
G1 X80.246 Y143.602 E33.48673
G1 X60.938 Y124.295 E35.66633
G1 X60.934 Y122.028 E35.84729
G1 X82.504 Y143.598 E38.2823
G1 X84.763 Y143.595 E38.46262
G1 X60.931 Y119.762 E41.15304
G1 X60.928 Y117.497 E41.33384
G1 X87.022 Y143.59 E44.2795
G1 X89.28 Y143.586 E44.45974
G1 X60.925 Y115.23 E47.66076
G1 X60.922 Y112.965 E47.84156
G1 X91.539 Y143.582 E51.29787
G1 X93.798 Y143.578 E51.4782
G1 X60.918 Y110.698 E55.18997
G1 X60.915 Y108.433 E55.37078
G1 X96.056 Y143.574 E59.3378
G1 X98.315 Y143.57 E59.51812
G1 X60.912 Y106.167 E63.74049
G1 X60.909 Y103.901 E63.92138
G1 X100.573 Y143.566 E68.39905
G1 X102.833 Y143.562 E68.57945
G1 X60.905 Y101.635 E73.31259
G1 X60.903 Y99.369 E73.49347
G1 X105.091 Y143.558 E78.48185
G1 X107.35 Y143.553 E78.66217
G1 X60.899 Y97.103 E83.90591
G1 X60.896 Y94.837 E84.08679
G1 X109.608 Y143.549 E89.58582
G1 X111.878 Y143.556 E89.76702
G1 X60.893 Y92.571 E95.52265
G1 X60.889 Y90.305 E95.70353
G1 X114.149 Y143.565 E101.71598
G1 X116.42 Y143.573 E101.89726
G1 X60.886 Y88.039 E108.16642
G1 X60.885 Y86.909 E108.25662
G1 X60.927 Y85.817 E108.34386
G1 X118.692 Y143.582 E114.86487
G1 X120.963 Y143.59 E115.04615
G1 X61.354 Y83.981 E121.77533
G1 X61.442 Y83.712 E121.79792
G1 X61.748 Y82.988 E121.86066
G1 X62.052 Y82.416 E121.91237
G1 X123.234 Y143.599 E128.81918
G1 X125.505 Y143.607 E129.00046
G1 X62.985 Y81.087 E136.05826
G1 X63.582 Y80.452 E136.12783
G1 X64.131 Y79.97 E136.18615
G1 X127.76 Y143.599 E143.36914
G1 X128.086 Y143.583 E143.3952
G1 X128.827 Y143.588 E143.45435
G1 X128.888 Y143.601 E143.45933
G1 X129.733 Y143.617 E143.52679
G1 X130.038 Y143.614 E143.55114
G1 X65.227 Y78.804 E150.86751
G1 X65.898 Y78.235 E150.93773
G1 X66.498 Y77.812 E150.99633
G1 X132.293 Y143.607 E158.42384
G1 X134.548 Y143.599 E158.60385
G1 X67.983 Y77.034 E166.11828
G1 X68.671 Y76.786 E166.17666
G1 X69.44 Y76.583 E166.24015
G1 X69.743 Y76.531 E166.26469
G1 X136.802 Y143.59 E173.83489
G1 X139.057 Y143.582 E174.01489
G1 X71.861 Y76.386 E181.60056
G1 X74.126 Y76.388 E181.78136
G1 X141.312 Y143.575 E189.36595
G1 X143.567 Y143.567 E189.54596
G1 X76.39 Y76.39 E197.12948
G1 X78.655 Y76.392 E197.31028
G1 X145.822 Y143.559 E204.89267
G1 X148.076 Y143.551 E205.07259
G1 X80.919 Y76.394 E212.65386
G1 X83.184 Y76.396 E212.83466
G1 X150.253 Y143.464 E220.40593
G1 X150.775 Y143.389 E220.44803
G1 X151.532 Y143.21 E220.51012
G1 X152.078 Y143.027 E220.55609
G1 X85.449 Y76.398 E228.07775
G1 X87.714 Y76.4 E228.25855
G1 X153.689 Y142.376 E235.70643
G1 X154.579 Y141.835 E235.78957
G1 X154.814 Y141.672 E235.8124
G1 X155.059 Y141.482 E235.83715
G1 X89.978 Y76.402 E243.184
G1 X92.243 Y76.404 E243.3648
G1 X156.278 Y140.439 E250.59363
G1 X156.791 Y139.851 E250.65591
G1 X157.276 Y139.174 E250.72239
G1 X94.508 Y76.406 E257.80819
G1 X96.773 Y76.408 E257.98899
G1 X158.055 Y137.69 E264.90703
G1 X158.31 Y137.091 E264.959
G1 X158.674 Y136.047 E265.04725
G1 X99.038 Y76.41 E271.77954
G1 X101.302 Y76.412 E271.96026
G1 X159.02 Y134.13 E278.47597
G1 X159.049 Y133.455 E278.5299
G1 X159.048 Y131.895 E278.65442
G1 X103.567 Y76.414 E284.9176
G1 X105.831 Y76.416 E285.09832
G1 X159.048 Y129.632 E291.10586
G1 X159.048 Y127.369 E291.2865
G1 X108.096 Y76.418 E297.03835
G1 X110.361 Y76.42 E297.21915
G1 X159.048 Y125.106 E302.7153
G1 X159.048 Y122.844 E302.89586
G1 X112.625 Y76.421 E308.13649
G1 X114.89 Y76.424 E308.3173
G1 X159.048 Y120.581 E313.30218
G1 X159.048 Y118.318 E313.48282
G1 X117.155 Y76.426 E318.21201
G1 X119.42 Y76.428 E318.39281
G1 X159.048 Y116.056 E322.86636
G1 X159.048 Y113.793 E323.047
G1 X121.685 Y76.43 E327.26486
G1 X123.949 Y76.431 E327.44558
G1 X159.048 Y111.53 E331.40786
G1 X159.048 Y109.267 E331.5885
G1 X126.214 Y76.434 E335.29503
G1 X128.479 Y76.436 E335.47584
G1 X159.048 Y107.005 E338.92673
G1 X159.048 Y104.742 E339.10737
G1 X130.744 Y76.438 E342.30257
G1 X133.008 Y76.44 E342.48329
G1 X159.048 Y102.479 E345.42286
G1 X159.048 Y100.216 E345.6035
G1 X135.273 Y76.441 E348.28743
G1 X137.537 Y76.443 E348.46815
G1 X159.048 Y97.954 E350.8965
G1 X159.048 Y95.691 E351.07714
G1 X139.802 Y76.446 E353.24974
G1 X142.067 Y76.448 E353.43054
G1 X159.048 Y93.428 E355.34744
G1 X159.048 Y91.165 E355.52809
G1 X144.332 Y76.45 E357.1893
G1 X146.596 Y76.451 E357.37002
G1 X159.048 Y88.903 E358.77571
G1 X159.049 Y86.452 E358.97136
G1 X159.03 Y85.934 E359.01274
G1 X158.969 Y85.268 E359.06612
G1 X158.86 Y84.661 E359.11535
G1 X158.794 Y84.354 E359.14042
G1 X158.705 Y84.034 E359.16693
G1 X151.431 Y76.761 E359.98803
G1 X150.762 Y76.61 E360.04277
G1 X149.914 Y76.488 E360.11116
G1 X149.165 Y76.454 E360.17101
G1 X148.861 Y76.453 E360.19528
G1 X159.048 Y86.64 E361.34527
M204 S500
;;retract;;
G1 F1500 E356.34527
G0 F600 X159.048 Y86.64 Z0.47
G0 F7200 X158.373 Y138.187
;TIME_ELAPSED:234.570631

;LAYER:-2
M204 S3000
;TYPE:SUPPORT
G1 F1500 E361.34527
G1 X153.636 Y142.923 E361.79364
G1 X154.108 Y142.704 E361.82847
G1 X154.795 Y142.291 E361.88212
G1 X155.101 Y142.081 E361.90697
G1 X156.045 Y141.358 E361.98656
G1 X156.655 Y140.768 E362.04336
G1 X157.178 Y140.166 E362.09674
G1 X157.678 Y139.474 E362.15389
G1 X158.104 Y138.757 E362.20971
G1 X158.502 Y137.915 E362.27205
G1 X158.823 Y137.147 E362.32777
G1 X159.185 Y136.102 E362.40179
G1 X151.573 Y143.713 E363.12231
G1 X150.859 Y143.884 E363.17145
G1 X150.011 Y144.003 E363.22877
G1 X159.506 Y134.508 E364.12759
G1 X159.548 Y133.469 E364.19719
G1 X159.548 Y133.194 E364.2156
G1 X148.691 Y144.05 E365.24329
G1 X147.412 Y144.056 E365.32891
G1 X159.548 Y131.921 E366.47767
G1 X159.548 Y130.648 E366.56288
G1 X146.134 Y144.062 E367.83268
G1 X144.855 Y144.068 E367.91829
G1 X159.548 Y129.375 E369.30916
G1 X159.548 Y128.103 E369.3943
G1 X143.576 Y144.074 E370.90619
G1 X142.298 Y144.08 E370.99174
G1 X159.548 Y126.83 E372.62465
G1 X159.548 Y125.557 E372.70986
G1 X141.019 Y144.086 E374.46385
G1 X139.74 Y144.092 E374.54946
G1 X159.548 Y124.284 E376.42452
G1 X159.548 Y123.011 E376.50973
G1 X138.461 Y144.098 E378.50587
G1 X137.185 Y144.101 E378.59128
G1 X159.548 Y121.739 E380.70815
G1 X159.548 Y120.466 E380.79336
G1 X135.91 Y144.104 E383.03098
G1 X134.634 Y144.106 E383.11639
G1 X159.548 Y119.193 E385.47475
G1 X159.548 Y117.92 E385.55996
G1 X133.359 Y144.109 E388.03906
G1 X132.084 Y144.111 E388.1244
G1 X159.548 Y116.647 E390.72419
G1 X159.548 Y115.375 E390.80933
G1 X130.809 Y144.114 E393.52982
G1 X129.534 Y144.116 E393.61516
G1 X159.548 Y114.102 E396.45634
G1 X159.548 Y112.829 E396.54155
G1 X128.317 Y144.06 E399.49794
G1 X128.052 Y144.049 E399.51569
G1 X127.307 Y144.115 E399.56575
G1 X126.989 Y144.115 E399.58704
G1 X159.548 Y111.556 E402.66913
G1 X159.548 Y110.283 E402.75434
G1 X125.719 Y144.112 E405.95666
G1 X124.449 Y144.109 E406.04167
G1 X159.548 Y109.011 E409.36416
G1 X159.548 Y107.738 E409.44936
G1 X123.179 Y144.106 E412.89207
G1 X121.908 Y144.104 E412.97715
G1 X159.548 Y106.465 E416.54017
G1 X159.548 Y105.192 E416.62538
G1 X120.638 Y144.101 E420.30863
G1 X119.369 Y144.098 E420.39357
G1 X159.548 Y103.919 E424.19699
G1 X159.548 Y102.647 E424.28213
G1 X118.103 Y144.091 E428.20534
G1 X116.837 Y144.085 E428.29008
G1 X159.548 Y101.374 E432.33319
G1 X159.548 Y100.101 E432.41839
G1 X115.57 Y144.078 E436.58139
G1 X114.304 Y144.072 E436.66613
G1 X159.548 Y98.828 E440.94901
G1 X159.548 Y97.555 E441.03422
G1 X113.038 Y144.065 E445.43694
G1 X111.772 Y144.058 E445.52168
G1 X159.548 Y96.283 E450.0442
G1 X159.548 Y95.01 E450.12941
G1 X110.505 Y144.052 E454.77186
G1 X109.235 Y144.049 E454.85687
G1 X159.548 Y93.737 E459.61954
G1 X159.548 Y92.464 E459.70475
G1 X107.963 Y144.049 E464.58788
G1 X106.69 Y144.049 E464.67309
G1 X159.548 Y91.192 E469.67668
G1 X159.548 Y89.919 E469.76189
G1 X105.417 Y144.049 E474.88598
G1 X104.144 Y144.049 E474.97119
G1 X159.548 Y88.646 E480.21579
G1 X159.548 Y87.373 E480.301
G1 X102.872 Y144.049 E485.66605
G1 X101.599 Y144.049 E485.75126
G1 X159.547 Y86.101 E491.23672
G1 X159.439 Y84.936 E491.31504
G1 X100.326 Y144.049 E496.91078
G1 X99.052 Y144.05 E496.99606
G1 X159.189 Y83.913 E502.68874
G1 X159.094 Y83.57 E502.71256
G1 X158.866 Y82.964 E502.7559
G1 X97.78 Y144.05 E508.53841
G1 X96.507 Y144.05 E508.62362
G1 X158.497 Y82.06 E514.49171
G1 X158.07 Y81.214 E514.55514
G1 X95.234 Y144.05 E520.50331
G1 X93.961 Y144.05 E520.58852
G1 X157.61 Y80.402 E526.61361
G1 X157.05 Y79.688 E526.67434
G1 X92.688 Y144.05 E532.76697
G1 X91.416 Y144.05 E532.85211
G1 X156.45 Y79.016 E539.00835
G1 X155.777 Y78.416 E539.0687
G1 X90.141 Y144.052 E545.28192
G1 X88.862 Y144.058 E545.36754
G1 X155.045 Y77.875 E551.63254
G1 X154.519 Y77.532 E551.67457
G1 X154.259 Y77.388 E551.69447
G1 X87.583 Y144.064 E558.00614
G1 X86.305 Y144.07 E558.09168
G1 X153.414 Y76.96 E564.44439
G1 X152.936 Y76.754 E564.47923
