;FLAVOR:Marlin
;TIME:5946.3
;Filament used:6.80178m
;Layer height: 0.2
;MINX:60.152
;MINY:75.652
;MINZ:0.24
;MAXX:159.889
;MAXY:144.395
;MAXZ:20.89
                                   
;Creality Print GCode Generated by CXEngine
;CRSLICE_GIT_HASH:3ff0ab3
;Creality Print Version : V4.3.5.5791
;CXEngine Release Time:2023-06-13 21:35:22
;Gcode Generated Time:2023-07-20 11:50:29
;----------Machine Config--------------
;Machine Name:Creality Ender-3
;Machine Height:250
;Machine Width:220
;Machine Depth:220
;Material name:Ender-PLA_1.75
;Number of Extruders:1
;ExtruderParams[0] Nozzle Diameter:1000
;----------Profile Config---------------
;Layer Height:0.2
;Wall Thickness:0.8
;Top/Bottom Thickness:0.8
;Out Wall Line Width:0.4
;Inner Wall Line Width:0.4
;Inital Layer Height:200
;Wall Line Count:2
;Infill Line Distance:8
;Infill Pattern:grid
;Infill Sparse Density:10
;Infill Wipe Distance:0
;Print Temperature:200
;Bed Temperature:60
;Support Enable:false
;Support Density:20
;Support Angle:45
;Adhesion Type:simpleraft
;machine is belt:false
;machine belt offset:10
;machine belt offset Y:0
;Raft Base Line Spacing:1.6
;Wait Heatup Sync:true
;Enable Ironing:false
;Material Type:PLA
;Max volumetric speed:10
;----------Shell Config----------------
;Outer Wall Wipe Distance:200
;Outer Inset First:false
;Infill Before Walls:false
;Infill Overlap:0.16
;Fill Gaps Between Walls:everywhere
;Minimum Infill Area:15
;Top Surface Skin Layer:0
;Top Layers:4
;Z Seam Alignment:sharpest_corner
;Seam Corner Preference:z_seam_corner_weighted
;Z Seam X:110
;Z Seam Y:220
;Horizontal Expansion:0
;Top/Bottom Pattern:zigzag
;Ironing Pattern:zigzag
;Vase Model:false
;----------Support Config----------------
;Support Type:everywhere
;Support Pattern:zigzag
;Support Infill Layer Thickness:0.15
;Minimum Support Area:5
;Enable Support Roof:true
;Support Roof Thickness:0.8
;Support Roof Pattern:lines
;Connect Support Lines:0
;Connect Support ZigZags:1
;Minimum Support X/Y Distance:0.2
;Support Line Distance:2
; ---------PrintSpeed & Travel----------
;Enable Print Cool:true
;Avoid Printed Parts Traveling:true
;Enable Retraction:true
;Retraction Distance:5
;Retraction Speed:25
;Retraction Prime Speed:25
;Maximum Retraction Count:100
;Minimum Extrusion Distance Window:2
;Z Hop When Retracted:false
;Z Hop Height:0.2
;Retract Before Outer Wall:true

;Outer Wall Speed:50
;Inner Wall Speed:50
;Infill Speed:50
;Top/Bottom Speed:50
;Travel Speed:120
;Initial Layer Speed:20
;Skirt/Brim Speed:25
;Prime Tower Speed:60
;Outer Wall Acceleration:500
;Inner Wall Acceleration:500
;Infill Acceleration:500
;Top/Bottom Acceleration:500
;Travel Acceleration:500
;Initial Layer Print Acceleration:500
;Initial Layer Travel Acceleration:500
;Skirt/Brim Acceleration:500
;Combing Mode:off
; --------SpecialModel&Mesh Fixes--------
;Union Overlapping Volum:true
;Remove All Holes:false
;Maximum Travel Resolution:0.25
;Maximum Deviation:0.05
;Maximum Model Angle:0.872665
;IS Mold Print:false
;Make Overhang Printable:false
;Enable Coasting:false
;Coasting Volumes:0.064
;Coasting Speed:0.9
;Raft AirGap:0.25
;Layer0 ZOverLap:0.13
;---------------------End of Head--------------------------
M140 S60
M105
M190 S60
M104 S200
M105
M109 S200
M82 ;absolute extrusion mode
M220 S100 ;Reset Feedrate
M221 S100 ;Reset Flowrate

G28 ;Home

G92 E0 ;Reset Extruder
G1 Z2.0 F3000 ;Move Z Axis up
G1 X10.1 Y20 Z0.28 F5000.0 ;Move to start position
G1 X10.1 Y145.0 Z0.28 F1500.0 E15 ;Draw the first line
G1 X10.4 Y145.0 Z0.28 F5000.0 ;Move to side a little
G1 X10.4 Y20 Z0.28 F1500.0 E30 ;Draw the second line
G92 E0  ;Reset Extruder
G1 E-1.0000 F1800 ;Retract a bit
G1 Z2.0 F3000 ;Move Z Axis up
G1 E0.0000 F1800 

G92 E0
G92 E0
G1 F1500 E-5
;LAYER_COUNT:100

;LAYER:-4
M106 S0
M106 P2 S0
M204 S500
G0 F7200 X63.139 Y79.012 Z0.24
M204 S3000
;TYPE:SUPPORT-INTERFACE
G1 F1500 E0
G1 F1200 X62.577 Y79.657 E0.06829
G1 X62.077 Y80.348 E0.13637
G1 X61.635 Y81.093 E0.20552
G1 X61.221 Y81.966 E0.28265
G1 X60.944 Y82.619 E0.33927
G1 X60.494 Y83.906 E0.4481
G1 X60.322 Y84.658 E0.50968
G1 X60.19 Y85.58 E0.58403
G1 X60.152 Y86.517 E0.65888
G1 X60.152 Y133.532 E4.41182
G1 X60.199 Y134.578 E4.49541
G1 X60.324 Y135.428 E4.56399
G1 X60.522 Y136.26 E4.63225
G1 X60.816 Y137.135 E4.70594
G1 X61.026 Y137.663 E4.7513
G1 X61.472 Y138.627 E4.83608
G1 X61.596 Y138.862 E4.85729
G1 X61.999 Y139.524 E4.91916
G1 X62.177 Y139.781 E4.94411
G1 X62.835 Y140.637 E5.0303
G1 X63.012 Y140.842 E5.05192
G1 X63.51 Y141.36 E5.10928
G1 X64.156 Y141.922 E5.17763
G1 X64.848 Y142.422 E5.24577
G1 X65.593 Y142.865 E5.31496
G1 X66.318 Y143.211 E5.37909
G1 X67.12 Y143.557 E5.44881
G1 X68.269 Y143.959 E5.54598
G1 X68.531 Y144.035 E5.56776
G1 X69.24 Y144.194 E5.62576
G1 X70.087 Y144.31 E5.694
G1 X70.884 Y144.346 E5.75769
G1 X148.111 Y144.35 E11.92228
G1 X149.279 Y144.395 E12.01558
G1 X150.141 Y144.349 E12.08449
G1 X150.972 Y144.229 E12.15151
G1 X151.806 Y144.034 E12.21988
G1 X152.625 Y143.764 E12.28872
G1 X153.416 Y143.421 E12.35754
G1 X154.12 Y143.036 E12.42159
G1 X154.77 Y142.647 E12.48206
G1 X155.755 Y141.968 E12.57756
G1 X155.965 Y141.805 E12.59878
G1 X156.409 Y141.417 E12.64584
G1 X156.598 Y141.237 E12.66668
G1 X157.103 Y140.71 E12.72494
G1 X157.639 Y140.04 E12.79343
G1 X158.108 Y139.334 E12.86109
G1 X158.519 Y138.651 E12.92472
G1 X158.797 Y138.158 E12.9699
G1 X159.174 Y137.351 E13.041
G1 X159.459 Y136.553 E13.10864
G1 X159.684 Y135.711 E13.17821
G1 X159.823 Y134.87 E13.24625
G1 X159.889 Y134.035 E13.31312
G1 X159.882 Y133.278 E13.37354
G1 X159.849 Y132.617 E13.42637
G1 X159.856 Y86.512 E17.10667
G1 X159.794 Y85.333 E17.20092
G1 X159.656 Y84.476 E17.27021
G1 X159.462 Y83.715 E17.3329
G1 X159.263 Y83.044 E17.38877
G1 X158.84 Y81.881 E17.48755
G1 X158.451 Y81.094 E17.55763
G1 X158.002 Y80.357 E17.62652
G1 X157.488 Y79.664 E17.69539
G1 X156.928 Y79.035 E17.76262
G1 X156.364 Y78.501 E17.82461
G1 X155.629 Y77.917 E17.89955
G1 X154.911 Y77.451 E17.96788
G1 X154.176 Y77.062 E18.03426
G1 X153.197 Y76.596 E18.12081
G1 X152.404 Y76.258 E18.18962
G1 X151.588 Y75.996 E18.25803
G1 X150.748 Y75.807 E18.32676
G1 X149.901 Y75.691 E18.395
G1 X149.104 Y75.655 E18.45869
G1 X70.97 Y75.652 E24.69568
G1 X69.922 Y75.699 E24.77942
G1 X69.086 Y75.823 E24.84688
G1 X68.243 Y76.021 E24.91601
G1 X67.365 Y76.316 E24.98994
G1 X66.837 Y76.526 E25.0353
G1 X65.873 Y76.972 E25.12009
G1 X65.638 Y77.097 E25.14134
G1 X64.976 Y77.499 E25.20316
G1 X64.72 Y77.677 E25.22805
G1 X63.862 Y78.337 E25.31446
G1 X63.656 Y78.514 E25.33614
G1 X63.139 Y79.012 E25.39344
M204 S500
;;retract;;
G1 F1500 E20.39344
G0 F7200 X86.717 Y106.283
M204 S3000
G1 F1500 E25.39344
G1 F1200 X86.963 Y105.646 E25.44795
G1 X87.285 Y105.05 E25.50202
G1 X87.687 Y104.49 E25.55705
G1 X88.143 Y103.999 E25.61054
G1 X88.656 Y103.569 E25.66397
G1 X89.244 Y103.189 E25.71986
G1 X89.862 Y102.897 E25.77442
G1 X90.516 Y102.682 E25.82937
G1 X91.163 Y102.556 E25.88199
G1 X91.841 Y102.511 E25.93623
G1 X121.383 Y102.512 E28.2944
G1 X122.294 Y102.594 E28.36741
G1 X122.975 Y102.76 E28.42336
G1 X123.613 Y103.007 E28.47797
G1 X124.233 Y103.345 E28.53434
G1 X124.745 Y103.712 E28.58463
G1 X125.258 Y104.184 E28.64027
G1 X125.703 Y104.717 E28.6957
G1 X126.067 Y105.282 E28.74935
G1 X126.366 Y105.914 E28.80516
G1 X126.58 Y106.568 E28.86009
G1 X126.705 Y107.216 E28.91277
G1 X126.749 Y107.882 E28.96605
G1 X126.751 Y118.32 E29.79925
G1 X126.667 Y119.262 E29.87475
G1 X126.492 Y119.957 E29.93195
G1 X126.264 Y120.548 E29.98252
G1 X125.932 Y121.165 E30.03845
G1 X125.536 Y121.719 E30.09281
G1 X125.071 Y122.22 E30.14737
G1 X124.561 Y122.647 E30.20047
G1 X123.973 Y123.027 E30.25635
G1 X123.355 Y123.319 E30.31091
G1 X122.701 Y123.534 E30.36587
G1 X122.054 Y123.66 E30.41848
G1 X121.376 Y123.705 E30.47272
G1 X91.83 Y123.704 E32.83121
G1 X90.904 Y123.621 E32.90543
G1 X90.235 Y123.454 E32.96047
G1 X89.598 Y123.208 E33.01497
G1 X89 Y122.884 E33.06927
G1 X88.446 Y122.487 E33.12367
G1 X87.965 Y122.042 E33.17598
G1 X87.507 Y121.494 E33.23299
G1 X87.14 Y120.925 E33.28704
G1 X86.849 Y120.308 E33.34149
G1 X86.635 Y119.654 E33.39642
G1 X86.509 Y119.007 E33.44904
G1 X86.464 Y118.332 E33.50304
G1 X86.467 Y107.876 E34.33768
G1 X86.548 Y106.967 E34.41053
G1 X86.717 Y106.283 E34.46677
M204 S500
;;retract;;
G1 F1500 E29.46677
G0 F7200 X95.088 Y124.503
M204 S3000
G1 F1500 E34.46677
G1 F1200 X114.131 Y143.547 E36.61656
G1 X111.869 Y143.547 E36.79713
G1 X92.825 Y124.503 E38.94698
G1 X97.35 Y124.503 E39.30818
G1 X116.394 Y143.547 E41.45803
G1 X118.657 Y143.547 E41.63868
G1 X99.613 Y124.503 E43.78853
G1 X101.876 Y124.503 E43.96917
G1 X120.92 Y143.547 E46.11902
G1 X123.183 Y143.548 E46.29966
G1 X104.139 Y124.503 E48.44957
G1 X106.401 Y124.503 E48.63014
G1 X125.446 Y143.548 E50.7801
G1 X127.709 Y143.548 E50.96074
G1 X108.664 Y124.503 E53.11071
G1 X110.927 Y124.503 E53.29135
G1 X129.971 Y143.548 E55.44126
G1 X132.234 Y143.548 E55.6219
G1 X113.19 Y124.503 E57.77181
G1 X115.452 Y124.503 E57.95237
G1 X134.497 Y143.548 E60.10233
G1 X136.76 Y143.549 E60.28298
G1 X117.715 Y124.503 E62.433
G1 X119.978 Y124.503 E62.61364
G1 X139.023 Y143.549 E64.76366
G1 X141.286 Y143.549 E64.9443
G1 X122.186 Y124.449 E67.10047
G1 X122.901 Y124.309 E67.15863
G1 X123.655 Y124.063 E67.22194
G1 X123.931 Y123.931 E67.24636
G1 X143.549 Y143.549 E69.46101
G1 X145.811 Y143.549 E69.64158
G1 X125.319 Y123.056 E71.95495
G1 X125.624 Y122.802 E71.98663
G1 X126.157 Y122.224 E72.04939
G1 X126.403 Y121.877 E72.08334
G1 X148.074 Y143.549 E74.52981
G1 X149.282 Y143.595 E74.62631
G1 X150.326 Y143.538 E74.70977
G1 X127.202 Y120.414 E77.32021
G1 X127.455 Y119.402 E77.40347
G1 X127.537 Y118.486 E77.47689
G1 X152.15 Y143.099 E80.25541
G1 X153.067 Y142.7 E80.33524
G1 X153.678 Y142.364 E80.3909
G1 X127.549 Y116.235 E83.34057
G1 X127.548 Y113.972 E83.52121
G1 X155.055 Y141.478 E86.62638
G1 X155.374 Y141.26 E86.65723
G1 X155.963 Y140.743 E86.71979
G1 X156.265 Y140.426 E86.75474
G1 X127.547 Y111.708 E89.99667
G1 X127.547 Y109.445 E90.17731
G1 X157.262 Y139.16 E93.5318
G1 X157.437 Y138.898 E93.55695
G1 X157.831 Y138.242 E93.61803
G1 X158.107 Y137.742 E93.66362
G1 X127.505 Y107.14 E97.11824
G1 X127.358 Y106.38 E97.18003
G1 X127.114 Y105.628 E97.24314
G1 X126.782 Y104.922 E97.30542
G1 X126.348 Y104.24 E97.36995
G1 X125.861 Y103.657 E97.43058
G1 X125.292 Y103.126 E97.49271
G1 X124.646 Y102.656 E97.55648
G1 X123.952 Y102.282 E97.61941
G1 X123.221 Y101.995 E97.6821
G1 X122.446 Y101.806 E97.74577
G1 X122.143 Y101.778 E97.77006
G1 X96.817 Y76.452 E100.62908
G1 X99.079 Y76.452 E100.80964
G1 X158.746 Y136.119 E107.54537
G1 X158.899 Y135.549 E107.59248
G1 X159.029 Y134.769 E107.6556
G1 X159.074 Y134.184 E107.70244
G1 X101.342 Y76.452 E114.21973
G1 X103.605 Y76.453 E114.40037
G1 X159.049 Y131.896 E120.65931
G1 X159.049 Y129.633 E120.83995
G1 X105.868 Y76.453 E126.84343
G1 X108.131 Y76.453 E127.02407
G1 X159.05 Y127.371 E132.77219
G1 X159.05 Y125.109 E132.95275
G1 X110.394 Y76.453 E138.44546
G1 X112.656 Y76.453 E138.62602
G1 X159.05 Y122.846 E143.86332
G1 X159.05 Y120.584 E144.04389
G1 X114.919 Y76.453 E149.02577
G1 X117.182 Y76.453 E149.20642
G1 X159.05 Y118.321 E153.93284
G1 X159.051 Y116.059 E154.1134
G1 X119.445 Y76.453 E158.58447
G1 X121.708 Y76.453 E158.76511
G1 X159.051 Y113.796 E162.98071
G1 X159.052 Y111.534 E163.16127
G1 X123.971 Y76.453 E167.12152
G1 X126.234 Y76.453 E167.30216
G1 X159.052 Y109.272 E171.007
G1 X159.053 Y107.01 E171.18756
G1 X128.496 Y76.453 E174.6371
G1 X130.759 Y76.453 E174.81774
G1 X159.053 Y104.747 E178.01181
G1 X159.053 Y102.484 E178.19246
G1 X133.022 Y76.453 E181.13106
G1 X135.285 Y76.454 E181.3117
G1 X159.053 Y100.222 E183.99484
G1 X159.053 Y97.959 E184.17548
G1 X137.548 Y76.454 E186.60315
G1 X139.811 Y76.454 E186.7838
G1 X159.054 Y95.697 E188.95611
G1 X159.054 Y93.434 E189.13675
G1 X142.074 Y76.454 E191.0536
G1 X144.336 Y76.454 E191.23417
G1 X159.055 Y91.172 E192.89572
G1 X159.055 Y88.91 E193.07628
G1 X146.599 Y76.454 E194.48242
G1 X148.862 Y76.454 E194.66306
G1 X159.063 Y86.655 E195.81464
G1 X158.998 Y85.421 E195.91328
G1 X158.854 Y84.57 E195.98218
G1 X158.692 Y83.933 E196.03464
G1 X158.507 Y83.306 E196.08683
G1 X158.104 Y82.194 E196.18124
G1 X157.752 Y81.485 E196.24443
G1 X157.338 Y80.804 E196.30804
G1 X156.862 Y80.163 E196.37178
G1 X156.355 Y79.594 E196.43261
G1 X155.836 Y79.103 E196.48964
G1 X155.162 Y78.567 E196.55838
G1 X154.512 Y78.145 E196.62024
G1 X153.814 Y77.776 E196.68327
G1 X152.875 Y77.329 E196.76628
G1 X152.123 Y77.008 E196.83155
G1 X151.468 Y76.798 E196.88646
G1 X158.721 Y84.05 E197.70518
M204 S500
;;retract;;
G1 F1500 E192.70518
G0 F7200 X117.55 Y101.71
M204 S3000
G1 F1500 E197.70518
G1 F1200 X92.291 Y76.452 E200.55658
G1 X94.554 Y76.452 E200.73722
G1 X119.812 Y101.71 E203.58856
G1 X115.287 Y101.71 E203.94977
G1 X90.028 Y76.452 E206.80117
G1 X87.766 Y76.452 E206.98173
G1 X113.024 Y101.71 E209.83307
G1 X110.761 Y101.71 E210.01371
G1 X85.502 Y76.451 E212.86517
G1 X83.239 Y76.451 E213.04581
G1 X108.499 Y101.71 E215.89732
G1 X106.236 Y101.71 E216.07796
G1 X80.977 Y76.451 E218.92942
G1 X78.714 Y76.451 E219.11006
G1 X103.973 Y101.71 E221.96151
G1 X101.71 Y101.71 E222.14216
G1 X76.451 Y76.451 E224.99361
G1 X74.188 Y76.451 E225.17425
G1 X99.448 Y101.71 E228.02576
G1 X97.185 Y101.71 E228.20641
G1 X71.926 Y76.451 E231.05786
G1 X70.996 Y76.452 E231.1321
G1 X69.997 Y76.497 E231.21192
G1 X69.745 Y76.533 E231.23224
G1 X94.922 Y101.71 E234.07444
G1 X92.659 Y101.71 E234.25508
G1 X67.921 Y76.972 E237.04772
G1 X67.647 Y77.066 E237.07084
G1 X67.147 Y77.264 E237.11377
G1 X66.328 Y77.642 E237.18578
G1 X90.526 Y101.839 E239.9174
G1 X89.562 Y102.153 E239.99833
G1 X88.893 Y102.469 E240.05739
G1 X64.94 Y78.517 E242.76135
G1 X64.274 Y79.03 E242.82846
G1 X63.722 Y79.561 E242.8896
G1 X87.587 Y103.427 E245.58374
G1 X87.046 Y104.01 E245.64723
G1 X86.572 Y104.674 E245.71235
G1 X62.723 Y80.825 E248.40464
G1 X62.344 Y81.465 E248.46401
G1 X61.943 Y82.308 E248.53853
G1 X85.897 Y106.261 E251.2426
G1 X85.765 Y106.799 E251.28682
G1 X85.666 Y107.859 E251.37181
G1 X85.665 Y108.293 E251.40645
G1 X61.308 Y83.936 E254.15608
G1 X61.11 Y84.803 E254.22707
G1 X60.959 Y85.849 E254.31143
G1 X85.665 Y110.556 E257.10051
G1 X85.665 Y112.818 E257.28108
G1 X60.951 Y88.104 E260.071
G1 X60.951 Y90.367 E260.25165
G1 X85.665 Y115.081 E263.04158
G1 X85.665 Y117.344 E263.22222
G1 X60.951 Y92.63 E266.01215
G1 X60.951 Y94.893 E266.19279
G1 X85.834 Y119.775 E269.00174
G1 X86.105 Y120.604 E269.07136
G1 X86.44 Y121.313 E269.13396
G1 X86.859 Y121.967 E269.19596
G1 X87.365 Y122.573 E269.25898
G1 X87.941 Y123.108 E269.32173
G1 X88.574 Y123.562 E269.38391
G1 X89.26 Y123.937 E269.44632
G1 X89.993 Y124.217 E269.50895
G1 X90.368 Y124.31 E269.5398
G1 X109.606 Y143.547 E271.71149
G1 X107.343 Y143.546 E271.89213
G1 X60.951 Y97.155 E277.12921
G1 X60.951 Y99.418 E277.30985
G1 X105.08 Y143.546 E282.29146
G1 X102.817 Y143.546 E282.4721
G1 X60.951 Y101.681 E287.19824
G1 X60.951 Y103.943 E287.3788
G1 X100.554 Y143.546 E291.84953
G1 X98.292 Y143.546 E292.03009
G1 X60.951 Y106.206 E296.24541
G1 X60.951 Y108.469 E296.42605
G1 X96.028 Y143.546 E300.38585
G1 X93.765 Y143.546 E300.56649
G1 X60.951 Y110.732 E304.27082
G1 X60.951 Y112.994 E304.45138
G1 X91.503 Y143.546 E307.90035
G1 X89.24 Y143.546 E308.081
G1 X60.951 Y115.257 E311.2745
G1 X60.951 Y117.52 E311.45515
G1 X86.977 Y143.546 E314.39319
G1 X84.714 Y143.546 E314.57383
G1 X60.951 Y119.783 E317.2564
G1 X60.951 Y122.045 E317.43696
G1 X82.451 Y143.545 E319.86407
G1 X80.188 Y143.545 E320.04471
G1 X60.951 Y124.308 E322.21635
G1 X60.951 Y126.571 E322.39699
G1 X77.925 Y143.545 E324.31316
G1 X75.663 Y143.545 E324.49373
G1 X60.951 Y128.834 E326.15449
G1 X60.951 Y131.096 E326.33505
G1 X73.4 Y143.545 E327.7404
G1 X71.137 Y143.545 E327.92104
G1 X60.951 Y133.359 E329.07093
G1 X60.997 Y134.505 E329.16248
G1 X61.111 Y135.28 E329.22501
G1 X61.292 Y136.039 E329.2873
G1 X61.564 Y136.849 E329.3555
G1 X61.765 Y137.353 E329.39881
G1 X62.239 Y138.379 E329.48903
G1 X62.676 Y139.097 E329.55613
G1 X62.828 Y139.315 E329.57734
G1 X63.512 Y140.207 E329.66707
G1 X64.055 Y140.773 E329.72968
G1 X64.65 Y141.291 E329.79265
